icons/braces.svg

<svg width="24" height="24" viewBox="0 0 24 24" fill="none" xmlns="http://www.w3.org/2000/svg">
<path fill-rule="evenodd" clip-rule="evenodd" d="M4.87868 3.87868C5.44129 3.31607 6.20435 3 7 3C7.55228 3 8 3.44772 8 4C8 4.55228 7.55228 5 7 5C6.73478 5 6.48043 5.10536 6.29289 5.29289C6.10536 5.48043 6 5.73478 6 6V9C6 9.95746 5.74907 10.9218 5.24626 11.676C5.17124 11.7886 5.0899 11.897 5.00265 12C5.0899 12.103 5.17124 12.2114 5.24626 12.324C5.74907 13.0782 6 14.0425 6 15V18C6 18.2652 6.10536 18.5196 6.29289 18.7071C6.48043 18.8946 6.73478 19 7 19C7.55228 19 8 19.4477 8 20C8 20.5523 7.55228 21 7 21C6.20435 21 5.44129 20.6839 4.87868 20.1213C4.31607 19.5587 4 18.7956 4 18V15C4 14.3662 3.82951 13.8044 3.58216 13.4334C3.33518 13.0629 3.10441 13 3 13C2.44772 13 2 12.5523 2 12C2 11.4477 2.44772 11 3 11C3.10441 11 3.33518 10.9371 3.58216 10.5666C3.82951 10.1956 4 9.63384 4 9V6C4 5.20435 4.31607 4.44129 4.87868 3.87868ZM16 4C16 3.44772 16.4477 3 17 3C17.7956 3 18.5587 3.31607 19.1213 3.87868C19.6839 4.44129 20 5.20435 20 6V9C20 9.63384 20.1705 10.1956 20.4178 10.5666C20.6648 10.9371 20.8956 11 21 11C21.5523 11 22 11.4477 22 12C22 12.5523 21.5523 13 21 13C20.8956 13 20.6648 13.0629 20.4178 13.4334C20.1705 13.8044 20 14.3662 20 15V18C20 18.7957 19.6839 19.5587 19.1213 20.1213C18.5587 20.6839 17.7957 21 17 21C16.4477 21 16 20.5523 16 20C16 19.4477 16.4477 19 17 19C17.2652 19 17.5196 18.8946 17.7071 18.7071C17.8946 18.5196 18 18.2652 18 18V15C18 14.0425 18.2509 13.0782 18.7537 12.324C18.8288 12.2114 18.9101 12.103 18.9974 12C18.9101 11.897 18.8288 11.7886 18.7537 11.676C18.2509 10.9218 18 9.95746 18 9V6C18 5.73478 17.8946 5.48043 17.7071 5.29289C17.5196 5.10536 17.2652 5 17 5C16.4477 5 16 4.55228 16 4Z" fill="black"/>
</svg>

<svg
  width="24"
  height="24"
  viewBox="0 0 24 24"
  xmlns="http://www.w3.org/2000/svg"
>
  <path
    fill-rule="evenodd"
    clip-rule="evenodd"
    d="M4.879 3.879A3 3 0 0 1 7 3a1 1 0 0 1 0 2 1 1 0 0 0-1 1v3c0 .957-.25 1.922-.754 2.676a3.527 3.527 0 0 1-.243.324c.087.103.168.211.243.324C5.75 13.078 6 14.043 6 15v3a1 1 0 0 0 1 1 1 1 0 1 1 0 2 3 3 0 0 1-3-3v-3c0-.634-.17-1.196-.418-1.567C3.335 13.063 3.104 13 3 13a1 1 0 1 1 0-2c.104 0 .335-.063.582-.433C3.83 10.196 4 9.634 4 9V6a3 3 0 0 1 .879-2.121zM16 4a1 1 0 0 1 1-1 3 3 0 0 1 3 3v3c0 .634.17 1.196.418 1.567.247.37.478.433.582.433a1 1 0 1 1 0 2c-.104 0-.335.063-.582.433-.247.371-.418.933-.418 1.567v3a3 3 0 0 1-3 3 1 1 0 1 1 0-2 1 1 0 0 0 1-1v-3c0-.957.25-1.922.754-2.676.075-.113.156-.221.243-.324a3.533 3.533 0 0 1-.243-.324C18.25 10.922 18 9.957 18 9V6a1 1 0 0 0-1-1 1 1 0 0 1-1-1z"
  />
</svg>
